X:61
T:RVW2/2/61 Long Life To Young Jimmy
C:James Punt, East Horndon, Essex, 23 April 1904
L:1/4
Q:1/4=40
M:3/4
I:linebreak $
K:G
"^(Editorial suggestion " d/>B/ | G G G | e (c/d/) e | d A B | G2 (B/c/) |$ B c d | c d e | 
w: You have|ban- ished my|Jim- my _ right|o- ver the|main and _|I am a-|fraid I shan't|
g"^?" !courtesy!=f e | d2 B/c/ |$ d e f | g g g | e c A | (c e) e | d A F |$ A/ !fermata!G2 d/ | 
w: see him a-|gain. May the|hea- vens pro-|tect him and|keep him from|harm _ and|send back my|Jim- my and|
g g3/2 f/ | e !fermata!d (G/A/) | B2 A/>G/ | G2 |] 
w: send back my|Jim- my to _|be in my|arms.|



